src/images/svg/blog/twitter.svg

<svg width="24" height="24" viewBox="0 0 24 24" fill="none" xmlns="http://www.w3.org/2000/svg">
<circle cx="12" cy="12" r="12" fill="#333333"/>
<path d="M19.3125 7.70683C18.8105 7.93269 18.2755 8.0824 17.7178 8.1551C18.2916 7.80375 18.7295 7.25163 18.9353 6.58615C18.4004 6.91327 17.8098 7.14433 17.1803 7.27327C16.6724 6.71856 15.9485 6.375 15.1587 6.375C13.6265 6.375 12.3929 7.65058 12.3929 9.21433C12.3929 9.43933 12.4115 9.65567 12.457 9.86163C10.1561 9.74654 8.12016 8.61548 6.75244 6.8925C6.51366 7.3174 6.37359 7.80375 6.37359 8.32731C6.37359 9.31038 6.86719 10.1818 7.60294 10.6863C7.15828 10.6777 6.72206 10.5453 6.3525 10.3367C6.3525 10.3454 6.3525 10.3566 6.3525 10.3679C6.3525 11.7473 7.31184 12.8931 8.56988 13.157C8.34459 13.2202 8.09906 13.2505 7.84425 13.2505C7.66706 13.2505 7.48819 13.2401 7.32028 13.202C7.67887 14.3262 8.69644 15.1526 9.90637 15.1794C8.96475 15.9349 7.76916 16.3901 6.47484 16.3901C6.24787 16.3901 6.03019 16.3797 5.8125 16.3512C7.03847 17.162 8.49141 17.625 10.0582 17.625C15.1511 17.625 17.9355 13.2981 17.9355 9.5475C17.9355 9.42202 17.9313 9.30087 17.9254 9.18058C18.4747 8.78077 18.9362 8.28144 19.3125 7.70683Z" fill="white"/>
</svg>

<svg width="24" height="24" fill="none" xmlns="http://www.w3.org/2000/svg"><circle cx="12" cy="12" r="12" fill="#333"/><path d="M19.313 7.707a5.658 5.658 0 0 1-1.595.448 2.81 2.81 0 0 0 1.217-1.569 5.447 5.447 0 0 1-1.755.687 2.741 2.741 0 0 0-2.021-.898c-1.533 0-2.766 1.276-2.766 2.84 0 .224.018.44.064.647-2.3-.115-4.337-1.247-5.705-2.97a2.914 2.914 0 0 0-.378 1.435c0 .983.493 1.855 1.229 2.36a2.68 2.68 0 0 1-1.25-.35v.03c0 1.38.959 2.526 2.217 2.79-.225.063-.47.094-.726.094-.177 0-.356-.01-.524-.049.359 1.124 1.376 1.95 2.586 1.977a5.473 5.473 0 0 1-4.094 1.172 7.651 7.651 0 0 0 4.246 1.274c5.093 0 7.878-4.327 7.878-8.078 0-.125-.005-.246-.01-.366.549-.4 1.01-.9 1.387-1.474z" fill="#fff"/></svg>
